X:3
T:Turnpke Gate [4]
M:6/8
L:1/8
S:From Ann Winnington’s music manuscript book (No. 21), from the early 19th century.
N:Winnington was an American, probably a pianist, who resided in England.
Z:AK/Fiddler’s Companion
K:D
ded | f2d g2e | a2f ded | e2g B2e | c2A ded |
f2d g2e | a2f ded | e2g ABc2 | d2z ded |
f2d g2e | a2f ded | e2g B2e | c2A ded |
f2d g2e | a2f ded | e2g ABc | d3 aba ||

